X:1
T:Ahaz, LM
T:Ahaz, LM
T:Lowell Mason, 1839
T:Public Domain Courtesy of the Cyber Hymnal™
C:Lowell Mason, 1839
Z:Public Domain
Z:Courtesy of the Cyber Hymnal™
%%score ( 1 2 ) ( 3 4 )
L:1/8
Q:1/4=115
M:3/4
K:G
V:1 treble 
V:2 treble 
V:3 bass 
V:4 bass 
V:1
 G2 | (G2 F2) E2 | (D2 G2) [DB]2 | ([EA]2 [DG]2) [DF]2 | [DG]4 [DB]2 | [EB]4 [^DA]2 | %6
 [EG]4 [^CA]2 | ([DF]>[EG] [DF]2) [CE]2 | D4 [DA]2 | (A2 B2) c2 | [DB]4 [Dd]2 | %11
 (E2 c2) ([DB][EA]) | (G2 F2) [Fd]2 | d4 d2 | ([Gd]2 [DF]2) [DF]2 | ([EA]2 [DG]2) [DF]2 | [DG]4 |] %17
V:2
 G2 | G2 F2 E2 | D4 x2 | x6 | x6 | x6 | x6 | x6 | D4 x2 | D4 x2 | x6 | E4 x2 | D4 x2 | %13
 (F>GAB) (cA) | x6 | x6 | x4 |] %17
V:3
 G,2 | G,2 F,2 E,2 | D,4 [G,,D]2 | ([C,C]2 [D,B,]2) [D,A,]2 | [G,,B,]4 G,2 | [E,G,]4 [B,,F,]2 | %6
 [C,E,]4 [A,,A,]2 | [D,A,]4 [A,,G,]2 | [D,F,]4 [D,F,]2 | (F,2 G,2) [D,A,]2 | G,4 [B,,D]2 | %11
 C4 ([B,,D][C,C]) | (B,2 A,2) [D,D]2 | D4 D2 | ([G,B,]2 [A,C]2) ([B,D][G,B,]) | %15
 ([C,C]2 [D,B,]2) [D,A,]2 | [G,,B,]4 |] %17
V:4
 G,2 | (G,2 F,2) E,2 | (D,2 B,,2) x2 | x6 | x4 G,2 | x6 | x6 | x6 | x6 | D,4 x2 | G,4 x2 | %11
 (C,2 A,,2) x2 | D,4 x2 | (D,>E,F,G,) (A,F,) | x6 | x6 | x4 |] %17

